rospo-dark/16x16/actions/draw-star.svg

<svg height="16" viewBox="0 0 16 16" width="16" xmlns="http://www.w3.org/2000/svg"><path d="m8.0292969 1-2.1875 4.5957031-4.8417969.7246094 3.4804688 3.59375-.8554688 5.0585935 4.3398438-2.376953 4.3125002 2.404297-.796875-5.0625 3.519531-3.5742188-4.832031-.7519531z" fill="#d3dae3"/></svg>

<?xml version="1.0" encoding="UTF-8" standalone="no"?>
<svg xmlns="http://www.w3.org/2000/svg" width="22" height="22" viewBox="0 0 22 22">
 <defs>
  <style type="text/css" id="current-color-scheme">
   .ColorScheme-Text { color:#d3dae3; } .ColorScheme-Highlight { color:#5294e2; }
  </style>
 </defs>
 <path style="fill:currentColor;opacity:1" class="ColorScheme-Text" transform="translate(3 3)" d="M 8.0292969 1 L 5.8417969 5.5957031 L 1 6.3203125 L 4.4804688 9.9140625 L 3.625 14.972656 L 7.9648438 12.595703 L 12.277344 15 L 11.480469 9.9375 L 15 6.3632812 L 10.167969 5.6113281 L 8.0292969 1 z"/>
</svg>
